images/lock.svg

<svg width="128" height="213" viewBox="0 0 128 213" fill="none" xmlns="http://www.w3.org/2000/svg">
<path d="M39.3582 65.7188L126.605 116.393L88.2468 138.809L1 88.1403L39.3582 65.7188Z" fill="white" stroke="black" stroke-width="0.909286" stroke-miterlimit="10"/>
<rect width="21.1553" height="21.1553" rx="10.5776" transform="matrix(0.866025 0.5 -0.872496 0.488621 35.6484 75.3203)" fill="black" stroke="black" stroke-width="1.42456"/>
<rect width="21.1553" height="21.1553" rx="10.5776" transform="matrix(0.866025 0.5 -0.872496 0.488621 91.3828 107.086)" fill="black" stroke="black" stroke-width="1.42456"/>
<path d="M1 161.327L88.2468 212.002V138.809L1 88.1406V161.327Z" fill="#F7F6FF" stroke="black" stroke-width="0.909286" stroke-miterlimit="10"/>
<path d="M88.2461 138.806L126.604 116.391V189.583L88.2461 211.998V138.806Z" fill="#79EFBD" stroke="black" stroke-width="0.909286" stroke-miterlimit="10"/>
<path d="M100.944 122.368C95.9991 125.664 86.4096 125.364 81.7646 122.368V55.0232C81.7527 48.3098 79.9846 41.7165 76.6358 35.898C73.2871 30.0794 68.4742 25.2383 62.6754 21.8555C60.8016 20.7673 58.6741 20.1922 56.5073 20.1881C54.3404 20.184 52.2108 20.7512 50.3329 21.8323C48.4551 22.9135 46.8953 24.4704 45.8108 26.3463C44.7263 28.2223 44.1554 30.351 44.1556 32.5179V91.3355C38.7615 93.8987 30.071 93.599 24.9766 90.0029L24.9766 32.5179C24.9748 26.9777 26.4338 21.535 29.2065 16.7386C31.9792 11.9423 35.9676 7.96177 40.7695 5.19858C45.5713 2.43539 51.0169 0.987288 56.557 1.00008C62.0971 1.01288 67.5359 2.48611 72.3249 5.27145C81.0224 10.3453 88.2413 17.606 93.2649 26.3326C98.2885 35.0591 100.942 44.948 100.962 55.0172L100.944 122.368Z" fill="#F7F6FF" stroke="black" stroke-width="0.909286" stroke-miterlimit="10"/>
<path d="M36.6641 38.4585L36.6641 92.999C40.0243 92.7767 41.6673 92.3212 44.1559 90.9013V33.0644C44.1559 33.0644 43.5566 26.7712 48.3513 23.1752C53.7866 19.0987 58.8399 20.1784 58.8399 20.1784C58.8399 20.1784 51.6477 17.1817 45.3546 20.7778C40.4975 23.5533 36.6641 29.4683 36.6641 38.4585Z" fill="#79EFBD" stroke="black" stroke-width="0.909286"/>
</svg>

<svg xmlns="http://www.w3.org/2000/svg" width="128" height="213" fill="none"><path fill="#fff" stroke="#000" stroke-miterlimit="10" stroke-width=".909" d="m39.358 65.719 87.247 50.674-38.358 22.416L1 88.14 39.358 65.72Z"/><rect width="21.155" height="21.155" fill="#000" stroke="#000" stroke-width="1.425" rx="10.578" transform="matrix(.86603 .5 -.8725 .48862 35.648 75.32)"/><rect width="21.155" height="21.155" fill="#000" stroke="#000" stroke-width="1.425" rx="10.578" transform="matrix(.86603 .5 -.8725 .48862 91.383 107.086)"/><path fill="#F7F6FF" stroke="#000" stroke-miterlimit="10" stroke-width=".909" d="m1 161.327 87.247 50.675v-73.193L1 88.141v73.186Z"/><path fill="#79EFBD" stroke="#000" stroke-miterlimit="10" stroke-width=".909" d="m88.246 138.806 38.358-22.415v73.192l-38.358 22.415v-73.192Z"/><path fill="#F7F6FF" stroke="#000" stroke-miterlimit="10" stroke-width=".909" d="M100.944 122.368c-4.945 3.296-14.534 2.996-19.18 0V55.023a38.477 38.477 0 0 0-19.089-33.168 12.329 12.329 0 0 0-18.52 10.663v58.817C38.762 93.9 30.072 93.6 24.978 90.004V32.518A31.508 31.508 0 0 1 72.325 5.27a57.724 57.724 0 0 1 28.637 49.746l-.018 67.351Z"/><path fill="#79EFBD" stroke="#000" stroke-width=".909" d="M36.664 38.459v54.54c3.36-.222 5.003-.678 7.492-2.098V33.064s-.6-6.293 4.195-9.889c5.436-4.076 10.489-2.997 10.489-2.997s-7.192-2.996-13.485.6c-4.857 2.775-8.69 8.69-8.69 17.68Z"/></svg>
